static/linkedin.svg

<?xml version="1.0" encoding="UTF-8"?>
<svg width="35px" height="38px" viewBox="0 0 35 38" version="1.1" xmlns="http://www.w3.org/2000/svg" xmlns:xlink="http://www.w3.org/1999/xlink">
    <title>Group 8</title>
    <defs>
        <polygon id="path-1" points="0.00642282958 0.054672299 23.567609 0.054672299 23.567609 26.825 0.00642282958 26.825"></polygon>
        <polygon id="path-3" points="0 37 34 37 34 0 0 0"></polygon>
    </defs>
    <g id="Page-1" stroke="none" stroke-width="1" fill="none" fill-rule="evenodd">
        <g id="Über-uns" transform="translate(-1634.000000, -2454.000000)">
            <g id="Group-8" transform="translate(1634.000000, 2454.000000)">
                <path d="M4.30660819,0 C5.05232076,0.18345084 5.73671243,0.472744272 6.32982716,0.974591637 C7.98445339,2.37487031 7.96302445,5.10846157 6.27073072,6.4668955 C4.48819813,7.89772517 2.19307621,7.66265616 0.752887753,5.90177424 C-0.600027785,4.24753127 -0.0652680098,1.55969412 1.84176009,0.54745669 C2.28783813,0.310650179 2.79286431,0.179613865 3.27082625,0 L4.30660819,0 Z" id="Fill-1" fill="#FFFFFF"></path>
                <g id="Group-5" transform="translate(10.388889, 10.175000)">
                    <mask id="mask-2" fill="white">
                        <use xlink:href="#path-1"></use>
                    </mask>
                    <g id="Clip-4"></g>
                    <path d="M0.00642282958,0.0620909333 L7.69005538,0.0620909333 L7.69005538,2.14864673 C8.01537245,1.91494733 8.27243748,1.73253733 8.52699714,1.54712293 C9.80131386,0.619121 11.2220043,0.0791874 12.8512469,0.0561536667 C14.0974732,0.0385564667 15.3200125,0.177045 16.5133985,0.508673533 C18.9968926,1.19868407 20.9938916,2.4964418 22.2601608,4.67692087 C23.1134253,6.146144 23.528328,7.74348333 23.539716,9.39955153 C23.5786629,15.133592 23.5631752,20.8679901 23.5676549,26.6022452 C23.5676549,26.6707741 23.5568739,26.7393031 23.5496615,26.825 L15.4450527,26.825 L15.4450527,26.3950847 C15.4450527,20.9938888 15.4532521,15.5926929 15.4329055,10.1915686 C15.4308557,9.63096187 15.3332226,9.04875207 15.1513942,8.5155426 C14.8296454,7.57187487 14.0678644,7.0094798 13.0605582,6.7800724 C11.882508,6.51167933 10.7046856,6.525986 9.57567971,6.99216873 C8.42845302,7.465934 7.85662379,8.34114433 7.71465345,9.48846747 C7.69142194,9.67688627 7.6908905,9.86845253 7.6908905,10.0585881 C7.6897517,15.5073537 7.69005538,20.9561192 7.6901313,26.4048847 L7.6901313,26.8178467 L0.00642282958,26.8178467 L0.00642282958,0.0620909333 Z" id="Fill-3" fill="#FFFFFF" mask="url(#mask-2)"></path>
                </g>
                <mask id="mask-4" fill="white">
                    <use xlink:href="#path-3"></use>
                </mask>
                <g id="Clip-7"></g>
                <polygon id="Fill-6" fill="#FFFFFF" mask="url(#mask-4)" points="0 37 7.55555556 37 7.55555556 10.175 0 10.175"></polygon>
            </g>
        </g>
    </g>
</svg>

<svg width="35" height="38" xmlns="http://www.w3.org/2000/svg" xmlns:xlink="http://www.w3.org/1999/xlink"><defs><path id="a" d="M0.00642282958 0.054672299L23.567609 0.054672299 23.567609 26.825 0.00642282958 26.825z"/><path id="c" d="M0 37L34 37 34 0 0 0z"/></defs><g fill="none" fill-rule="evenodd"><path d="M4.307 0c.745.183 1.43.473 2.023.975 1.654 1.4 1.633 4.133-.06 5.492-1.782 1.43-4.077 1.196-5.517-.565C-.6 4.248-.065 1.56 1.842.547 2.288.311 2.792.18 3.27 0h1.036z" fill="#FFF"/><g transform="translate(10.389 10.175)"><mask id="b" fill="#fff"><use xlink:href="#a"/></mask><path d="M.006.062H7.69V2.15c.325-.234.582-.416.837-.602C9.801.62 11.222.08 12.851.057c1.246-.018 2.469.12 3.662.452 2.484.69 4.48 1.987 5.747 4.168A9.425 9.425 0 0 1 23.54 9.4c.039 5.734.023 11.468.028 17.202 0 .069-.011.137-.018.223h-8.105v-.43c0-5.401.008-10.802-.012-16.203a5.329 5.329 0 0 0-.282-1.676c-.321-.944-1.083-1.507-2.09-1.736-1.178-.268-2.356-.254-3.485.212-1.148.474-1.72 1.35-1.861 2.496-.024.189-.024.38-.024.57v16.76H.005V.062z" fill="#FFF" mask="url(#b)"/></g><mask id="d" fill="#fff"><use xlink:href="#c"/></mask><path fill="#FFF" mask="url(#d)" d="M0 37L7.55555556 37 7.55555556 10.175 0 10.175z"/></g></svg>
